X: 27973
T: Mouse In The Mug, The
R: jig
M: 6/8
K: Gmajor
|:~G2B BAB|dgf g2d|e/f/ge dBG|ABG ~E2D|
~G3 EGD|~G3 Bdg|~e3 dge|1 dBA ABA:|2 dBA ABc||
d2B dgb|abg e2g|dgg egg|dBA ABc|
d2B dgb|abg e2g|dgg dBA|AGF G2B|
d2B dgb|abg e2g|dGG egg|dBA ABA|
~G3 EGD|~G3 Bdg|~e3 dge|dBA ABA||

